X: 1
T: Sean's
R: jig
M: 6/8
L: 1/8
K: G
|:A,DF DFA | BAB B2B | AFD FDA, | EFE E2 E | 
A,DF DFA | B2 B B^c | d^cB AGE | D6 :| 